X: 18264
T: Humours Of Newcastle, The
R: reel
M: 4/4
K: Dmajor
DFEF D2 dB|A2 FD EA, ~A,2|DFEG D2 dB|AFEG FD D2:|
d2 fd Adfd|A2 (3cBA eA (3cBA|d2 fd Adfd|(3fga eg fB B2|
d2 fd Adfd|A2 (3cBA eA (3cBA|dfeg (3fga ec|dBAG FD D2||

